public/avatar/shoe/32.svg

<svg xmlns:xlink="http://www.w3.org/1999/xlink" height="38.3" width="36.05" xmlns="http://www.w3.org/2000/svg"><use height="16.35" transform="translate(8.95 12.4)" width="24.35" xlink:href="#a"/><defs><g id="a"><path d="m5.7 10.15.9-1.65q.55-.3 1.3-3l1.05.75q.3.45.15 1.25-.15 1.05-.8 1.45l-2.6 1.2" fill="#c99f55" fill-rule="evenodd" transform="translate(14.85 2.45)"/><path d="M5.5 10.3q-8.1 2.5-11.7 2.5-5.15 0-6.85-1.15-1-.65-.75-1.95.2-1.35 1.1-1.45l2.05-2.65Q-4.2-1.6 1.9-1.55q1.8.1 4.15 2.95Q8.2 4.15 8.3 5.8q.1 3.5-2.8 4.5" fill="#c99f55" fill-rule="evenodd" transform="translate(14.85 2.45)"/><path d="m-1.4 10.35-5.25 1.15q-1-.15.85-3.2l3.5-2.35-3.2-.15q-.85.05-2.35 1.8-.4.4-.85 1.9-.3 1.25-.65 1.25l-2.4-.45-1-.75.3-1.8 4.8-5.1q4.55-4.7 8.5-4.5 5.1.4 6.95 6 .7 1.9.55 2.25-1.05 1.95-4.5 2.7l-5.25 1.25" fill="#fff" fill-rule="evenodd" transform="translate(14.85 2.45)"/><path d="M-1.9 5q3.3 1.5 3.3 5.1l-2.05.65q-.15-2.1-.85-3-.7-.95-2.9-1.6Q-8.2 5-9.95 5.5l-1.5.75q1.85-2.5 3.05-2.7Q-5.9 3.2-1.9 5" fill="#c99f55" fill-rule="evenodd" transform="translate(14.85 2.45)"/><path d="M8.15 5.25Q8.4 7 4.9 8.25 1.45 9.55.55 9.4M-9 10.45l-2.45-.7-1-.75-.3-1.4" fill="none" stroke="#dbdbdb" stroke-linecap="round" stroke-linejoin="round" transform="translate(14.85 2.45)"/><path d="m-13.65 8.3-.5.65q-.4.85 0 1.8 1.4 2.95 9.65 2.6 4-.25 11.2-3.6 2.7-1.15 2.25-3.5" fill="none" stroke="#806536" stroke-linecap="round" stroke-linejoin="round" transform="translate(14.85 2.45)"/><path d="M8.95 6.45q0-1.2-.7-2.4L5.7.6Q4.1-1.05 1.65-1.7-.9-2.5-3.65-.6L-8.4 3.6l-4.5 4.05-.75.65" fill="none" stroke="#000" stroke-linecap="round" stroke-linejoin="round" transform="translate(14.85 2.45)"/><path d="M-.75 9.75q-1.4 1.75-4.1 1.75-2.7-.05-2.65-.6" fill="none" stroke="#dbdbdb" stroke-linecap="round" stroke-linejoin="round" transform="translate(14.85 2.45)"/><path d="M-5.6 7q-1.9-.5-.7-3.35l4-.2q3.7.65 3.15 1.7-.6 1-2.75 1.6L-5.6 7" fill="#c99f55" fill-rule="evenodd" transform="translate(14.85 2.45)"/></g></defs></svg>

<?xml version="1.0" encoding="UTF-8" standalone="no"?>
<svg xmlns:xlink="http://www.w3.org/1999/xlink" height="38.3px" width="36.05px" xmlns="http://www.w3.org/2000/svg">
  <g transform="matrix(1.0, 0.0, 0.0, 1.0, 23.8, 14.85)">
    <use height="16.35" transform="matrix(1.0, 0.0, 0.0, 1.0, -14.85, -2.45)" width="24.35" xlink:href="#shape0"/>
  </g>
  <defs>
    <g id="shape0" transform="matrix(1.0, 0.0, 0.0, 1.0, 14.85, 2.45)">
      <path d="M5.7 10.15 L6.6 8.5 Q7.15 8.2 7.9 5.5 L8.95 6.25 Q9.25 6.7 9.1 7.5 8.95 8.55 8.3 8.95 L5.7 10.15" fill="#c99f55" fill-rule="evenodd" stroke="none"/>
      <path d="M5.5 10.3 Q-2.6 12.8 -6.2 12.8 -11.35 12.8 -13.05 11.65 -14.05 11.0 -13.8 9.7 -13.6 8.35 -12.7 8.25 L-10.65 5.6 Q-4.2 -1.6 1.9 -1.55 3.7 -1.45 6.05 1.4 8.2 4.15 8.3 5.8 8.4 9.3 5.5 10.3" fill="#c99f55" fill-rule="evenodd" stroke="none"/>
      <path d="M-1.4 10.35 L-6.65 11.5 Q-7.65 11.35 -5.8 8.3 L-2.3 5.95 -5.5 5.8 Q-6.35 5.85 -7.85 7.6 -8.25 8.0 -8.7 9.5 -9.0 10.75 -9.35 10.75 L-11.75 10.3 -12.75 9.55 -12.45 7.75 -7.65 2.65 Q-3.1 -2.05 0.85 -1.85 5.95 -1.45 7.8 4.15 8.5 6.05 8.35 6.4 7.3 8.35 3.85 9.1 L-1.4 10.35" fill="#ffffff" fill-rule="evenodd" stroke="none"/>
      <path d="M-1.9 5.0 Q1.4 6.5 1.4 10.1 L-0.65 10.75 Q-0.8 8.65 -1.5 7.75 -2.2 6.8 -4.4 6.15 -8.2 5.0 -9.95 5.5 L-11.45 6.25 Q-9.6 3.75 -8.4 3.55 -5.9 3.2 -1.9 5.0" fill="#c99f55" fill-rule="evenodd" stroke="none"/>
      <path d="M8.15 5.25 Q8.4 7.0 4.9 8.25 1.45 9.55 0.55 9.4" fill="none" stroke="#dbdbdb" stroke-linecap="round" stroke-linejoin="round" stroke-width="1.0"/>
      <path d="M-9.0 10.45 L-11.45 9.75 -12.45 9.0 -12.75 7.6" fill="none" stroke="#dbdbdb" stroke-linecap="round" stroke-linejoin="round" stroke-width="1.0"/>
      <path d="M-13.65 8.3 L-14.15 8.95 Q-14.55 9.8 -14.15 10.75 -12.75 13.7 -4.5 13.35 -0.5 13.1 6.7 9.75 9.4 8.6 8.95 6.25" fill="none" stroke="#806536" stroke-linecap="round" stroke-linejoin="round" stroke-width="1.0"/>
      <path d="M8.95 6.45 Q8.95 5.25 8.25 4.05 L5.7 0.6 Q4.1 -1.05 1.65 -1.7 -0.9 -2.5 -3.65 -0.6 L-8.4 3.6 -12.9 7.65 -13.65 8.3" fill="none" stroke="#000000" stroke-linecap="round" stroke-linejoin="round" stroke-width="1.0"/>
      <path d="M-0.75 9.75 Q-2.15 11.5 -4.85 11.5 -7.55 11.45 -7.5 10.9" fill="none" stroke="#dbdbdb" stroke-linecap="round" stroke-linejoin="round" stroke-width="1.0"/>
      <path d="M-5.6 7.0 Q-7.5 6.5 -6.3 3.65 L-2.3 3.45 Q1.4 4.1 0.85 5.15 0.25 6.15 -1.9 6.75 L-5.6 7.0" fill="#c99f55" fill-rule="evenodd" stroke="none"/>
    </g>
  </defs>
</svg>
